X:1
T:KING HENRY
M:2/4
L:1/16
K:F
 D2| D d3 dc A2| c4 AG F2| D d3 c3 A| G4| F F2 G| A4A-G F2| D2D2D-E F2|\
 G2G2A-G F2| C2- D6|
